X: 178
T:Spootiskerry
C:Composer:Samual Ian Rothmar Burns
M:4/4
F:http://blackrosetheband.googlepages.com/ABCTUNES.ABC May 2009
R:reel
S:Source: The Angus Sessions Broadcast
K:G
DE|:G2 DE GDEG|DEGA B2 AB|G2 DE GABd|eged B2 AB|
G2 DE GDEG|DEGA B2 AB|g2 ed edBA|1 B2 G2 G2 DE :|2 B2 G2 G2 ef||
g2 ed edBA|BdBG E2 DE|GABd eged|B2 A2 A2 ef|
g2 ed edBA|BdBG E2 DE|GABd eged|B2 G2 G2 ef|
g2 ed edBA|BdBG E2 DE|GABd eged|B2 A2 A2 BA|
G2 DE GDEG|DEGA B2 AB|g2 ed edBA| B2 G2 G2 DE|

